fs/document_percent_24_filled.svg

<svg viewBox="0 0 24 24" fill="none" xmlns="http://www.w3.org/2000/svg" height="1em" width="1em">
  <path d="M12 8V2H6C4.89543 2 4 2.89543 4 4V11.0354C5.69615 11.2781 7 12.7368 7 14.5L6.99991 14.5252L9.01256 12.5126C9.69598 11.8291 10.804 11.8291 11.4874 12.5126C12.1709 13.196 12.1709 14.304 11.4874 14.9874L9.47478 17.0001L9.5 17C11.433 17 13 18.567 13 20.5C13 21.0368 12.8792 21.5454 12.6632 22H18C19.1046 22 20 21.1046 20 20V10H14C12.8954 10 12 9.10457 12 8ZM5.1266 16.3985C4.80991 16.6701 4.42448 16.8638 4 16.95C3.83844 16.9828 3.67123 17 3.5 17C2.11929 17 1 15.8807 1 14.5C1 13.1193 2.11929 12 3.5 12C3.67123 12 3.83844 12.0172 4 12.05C5.14112 12.2816 6 13.2905 6 14.5C6 15.1211 5.77347 15.6894 5.39852 16.1266C5.31497 16.224 5.22404 16.315 5.1266 16.3985ZM4 13.6338C3.85291 13.5487 3.68214 13.5 3.5 13.5C2.94772 13.5 2.5 13.9477 2.5 14.5C2.5 15.0523 2.94772 15.5 3.5 15.5C3.68214 15.5 3.85291 15.4513 4 15.3662C4.2989 15.1933 4.5 14.8701 4.5 14.5C4.5 14.1299 4.2989 13.8067 4 13.6338ZM10.7803 14.2803C11.0732 13.9874 11.0732 13.5126 10.7803 13.2197C10.4874 12.9268 10.0126 12.9268 9.71967 13.2197L2.21967 20.7197C1.92678 21.0126 1.92678 21.4874 2.21967 21.7803C2.51256 22.0732 2.98744 22.0732 3.28033 21.7803L10.7803 14.2803ZM7 20.5C7 21.0628 7.18597 21.5822 7.49982 22C7.95592 22.6072 8.68209 23 9.5 23C10.3179 23 11.0441 22.6072 11.5002 22C11.814 21.5822 12 21.0628 12 20.5C12 19.1193 10.8807 18 9.5 18C8.87885 18 8.31061 18.2265 7.87339 18.6015C7.77596 18.685 7.68504 18.776 7.60148 18.8734C7.22653 19.3106 7 19.8789 7 20.5ZM10.5 20.5C10.5 21.0523 10.0523 21.5 9.5 21.5C8.94772 21.5 8.5 21.0523 8.5 20.5C8.5 19.9477 8.94772 19.5 9.5 19.5C10.0523 19.5 10.5 19.9477 10.5 20.5ZM13.5 8V2.5L19.5 8.5H14C13.7239 8.5 13.5 8.27614 13.5 8Z" fill="#212121"/>
</svg>

<svg viewBox="0 0 24 24" fill="none" xmlns="http://www.w3.org/2000/svg" height="1em" width="1em">
  <path d="M12 8V2H6a2 2 0 0 0-2 2v7.035A3.5 3.5 0 0 1 7 14.5v.025l2.013-2.012a1.75 1.75 0 1 1 2.474 2.474L9.475 17H9.5a3.5 3.5 0 0 1 3.163 5H18a2 2 0 0 0 2-2V10h-6a2 2 0 0 1-2-2Zm-6.873 8.398A2.492 2.492 0 0 1 3.5 17a2.5 2.5 0 1 1 1.627-.602ZM4 13.634a1 1 0 1 0-1 1.732 1 1 0 0 0 1-1.732Zm6.78.646a.75.75 0 1 0-1.06-1.06l-7.5 7.5a.75.75 0 1 0 1.06 1.06l7.5-7.5ZM7 20.5A2.496 2.496 0 0 0 9.5 23a2.496 2.496 0 0 0 2.5-2.5 2.5 2.5 0 0 0-5 0Zm3.5 0a1 1 0 1 1-2 0 1 1 0 0 1 2 0Zm3-12.5V2.5l6 6H14a.5.5 0 0 1-.5-.5Z" fill="#212121"/>
</svg>
